Obsidian/actions/16s/transform-affect-pattern.svg

<svg height="16" viewBox="0 0 16 16" width="16" xmlns="http://www.w3.org/2000/svg"><path d="m2.0585938 3.0019531 2.1445312 1.6308594-2.203125 1.6757813v.0332031l2.1796875 1.6601562h.046875l2.1796875-1.6601562-2.203125-1.6757813 2.1914062-1.6640625zm4.40625 0 2.1464843 1.6308594 2.1425779-1.6308594zm4.4531252 0 2.082031 1.5839844v-1.5839844zm-2.261719 1.6640625-2.203125 1.6757813 2.1796875 1.6601562 2.2031255-1.6757812zm2.179688 1.6601563 2.164062 1.6445312v-3.2910156zm.171874 2.6875v1.9941401h-2.0019526v.996094h2.0019526v1.996094l3.003907-2.494141zm-7.007812 1.9785161v1.029296h1v-1.029296zm2.0175781 0v1.029296h.484375 1.0019531.484375v-1.029296h-.484375-1.0019531z" fill="#bebebe"/></svg>

<svg xmlns="http://www.w3.org/2000/svg" width="16" height="16" viewBox="0 0 16 16">
 <defs>
  <style id="current-color-scheme" type="text/css">
   .ColorScheme-Text { color:#bebebe; } .ColorScheme-Highlight { color:#4285f4; }
  </style>
 </defs>
 <path style="fill:currentColor" class="ColorScheme-Text" d="M 2.0585938 3.0019531 L 4.203125 4.6328125 L 2 6.3085938 L 2 6.3417969 L 4.1796875 8.0019531 L 4.2265625 8.0019531 L 6.40625 6.3417969 L 4.203125 4.6660156 L 6.3945312 3.0019531 L 2.0585938 3.0019531 z M 6.4648438 3.0019531 L 8.6113281 4.6328125 L 10.753906 3.0019531 L 6.4648438 3.0019531 z M 10.917969 3.0019531 L 13 4.5859375 L 13 3.0019531 L 10.917969 3.0019531 z M 8.65625 4.6660156 L 6.453125 6.3417969 L 8.6328125 8.0019531 L 10.835938 6.3261719 L 8.65625 4.6660156 z M 10.835938 6.3261719 L 13 7.9707031 L 13 4.6796875 L 10.835938 6.3261719 z M 11.007812 9.0136719 L 11.007812 11.007812 L 9.0058594 11.007812 L 9.0058594 12.003906 L 11.007812 12.003906 L 11.007812 14 L 14.011719 11.505859 L 11.007812 9.0136719 z M 4 10.992188 L 4 12.021484 L 5 12.021484 L 5 10.992188 L 4 10.992188 z M 6.0175781 10.992188 L 6.0175781 12.021484 L 6.5019531 12.021484 L 7.5039062 12.021484 L 7.9882812 12.021484 L 7.9882812 10.992188 L 7.5039062 10.992188 L 6.5019531 10.992188 L 6.0175781 10.992188 z"/>
</svg>
